docs/img/DFI.svg

<?xml version="1.0" encoding="UTF-8"?>
<svg xmlns="http://www.w3.org/2000/svg" xmlns:xlink="http://www.w3.org/1999/xlink" width="32px" height="32px" viewBox="0 0 32 32" version="1.1">
<g id="surface1">
<path style=" stroke:none;fill-rule:evenodd;fill:rgb(100%,0%,69.019608%);fill-opacity:1;" d="M 19.546875 27.925781 L 19.546875 4.074219 C 24.683594 5.605469 28.4375 10.375 28.4375 16 C 28.4375 21.625 24.683594 26.394531 19.546875 27.925781 M 15.992188 0 L 15.992188 13.484375 L 13.960938 11.453125 L 13.699219 6.386719 L 15.820312 0.0078125 C 14.492188 0.0234375 13.171875 0.207031 11.890625 0.550781 L 10.867188 3.632812 L 7.960938 2.175781 C 6.816406 2.839844 5.753906 3.644531 4.804688 4.570312 L 10.1875 7.265625 L 10.34375 10.351562 L 7.257812 10.195312 L 4.5625 4.8125 C 3.636719 5.765625 2.832031 6.824219 2.167969 7.972656 L 3.625 10.878906 L 0.539062 11.902344 C 0.199219 13.183594 0.015625 14.5 0 15.828125 L 6.375 13.710938 L 11.445312 13.96875 L 13.476562 16 L 11.445312 18.03125 L 6.375 18.289062 L 0 16.171875 C 0.015625 17.5 0.199219 18.816406 0.539062 20.097656 L 3.625 21.121094 L 2.167969 24.027344 C 2.832031 25.175781 3.636719 26.234375 4.5625 27.1875 L 7.257812 21.804688 L 10.34375 21.648438 L 10.1875 24.734375 L 4.804688 27.429688 C 5.753906 28.355469 6.816406 29.160156 7.960938 29.824219 L 10.867188 28.367188 L 11.890625 31.449219 C 13.171875 31.792969 14.492188 31.972656 15.820312 31.992188 L 13.699219 25.613281 L 13.960938 20.546875 L 15.992188 18.515625 L 15.992188 32 C 24.828125 32 31.992188 24.835938 31.992188 16 C 31.992188 7.164062 24.828125 0 15.992188 0 "/>
</g>
</svg>

<svg height="32" width="32" xmlns="http://www.w3.org/2000/svg"><path d="M19.547 27.926V4.074c5.137 1.531 8.89 6.301 8.89 11.926s-3.753 10.395-8.89 11.926M15.992 0v13.484l-2.031-2.03-.262-5.067L15.82.007c-1.328.016-2.648.2-3.93.544l-1.023 3.082-2.906-1.457A16.083 16.083 0 0 0 4.805 4.57l5.383 2.696.156 3.086-3.086-.157-2.695-5.382a16.108 16.108 0 0 0-2.395 3.16l1.457 2.906-3.086 1.023A16.04 16.04 0 0 0 0 15.828l6.375-2.117 5.07.258L13.477 16l-2.032 2.031-5.07.258L0 16.172c.016 1.328.2 2.644.54 3.926l3.085 1.023-1.457 2.906a16.108 16.108 0 0 0 2.395 3.16l2.695-5.382 3.086-.157-.156 3.086-5.383 2.696c.949.925 2.011 1.73 3.156 2.394l2.906-1.457 1.024 3.082c1.28.344 2.601.524 3.93.543l-2.122-6.379.262-5.066 2.031-2.031V32c8.836 0 16-7.164 16-16s-7.164-16-16-16" fill="#ff00b0" fill-rule="evenodd"/></svg>
